frontend/public/icons/rotate-camera-right.svg

<svg width="24" height="24" viewBox="0 0 24 24" fill="none" xmlns="http://www.w3.org/2000/svg">
<path d="M22.0034 3V7.49704C22.0034 7.77482 21.7782 8 21.5004 8C21.3005 8 21.1206 7.88104 21.0345 7.70059C19.4268 4.32948 15.9871 2 12.0034 2C6.81801 2 2.55446 5.94668 2.05273 11" stroke="black" stroke-width="1.5" stroke-linecap="round" stroke-linejoin="round"/>
<path d="M6 16.4V9.39365C6 9.06228 6.26863 8.79365 6.6 8.79365H7.77283C7.97677 8.79365 8.16674 8.69006 8.2772 8.51863L9.7228 6.27502C9.83326 6.10359 10.0232 6 10.2272 6H13.7728C13.9768 6 14.1667 6.10359 14.2772 6.27502L15.7228 8.51863C15.8333 8.69006 16.0232 8.79365 16.2272 8.79365H17.4C17.7314 8.79365 18 9.06228 18 9.39365V16.4C18 16.7314 17.7314 17 17.4 17H6.6C6.26863 17 6 16.7314 6 16.4Z" stroke="black" stroke-width="1.5" stroke-linecap="round" stroke-linejoin="round"/>
<path d="M12 14C13.1046 14 14 13.1046 14 12C14 10.8954 13.1046 10 12 10C10.8954 10 10 10.8954 10 12C10 13.1046 10.8954 14 12 14Z" stroke="black" stroke-width="1.5" stroke-linecap="round" stroke-linejoin="round"/>
<path d="M2.05133 21V16.503C2.05133 16.2252 2.27651 16 2.55429 16C2.75421 16 2.93412 16.119 3.02018 16.2994C4.62792 19.6705 8.06758 22 12.0513 22C17.2367 22 21.5002 18.0533 22.002 13" stroke="black" stroke-width="1.5" stroke-linecap="round" stroke-linejoin="round"/>
</svg>

<svg xmlns="http://www.w3.org/2000/svg" width="24" height="24" fill="none" viewBox="0 0 24 24">
  <path stroke="#131927" stroke-linecap="round" stroke-linejoin="round" stroke-width="1.5" d="M22.003 3v4.497A.503.503 0 0 1 21.5 8a.52.52 0 0 1-.465-.3A10 10 0 0 0 12.003 2c-5.185 0-9.449 3.947-9.95 9"/>
  <path stroke="#131927" stroke-linecap="round" stroke-linejoin="round" stroke-width="1.5" d="M6 16.4V9.394a.6.6 0 0 1 .6-.6h1.173a.6.6 0 0 0 .504-.275l1.446-2.244A.6.6 0 0 1 10.227 6h3.546a.6.6 0 0 1 .504.275l1.446 2.244a.6.6 0 0 0 .504.275H17.4a.6.6 0 0 1 .6.6V16.4a.6.6 0 0 1-.6.6H6.6a.6.6 0 0 1-.6-.6Z"/>
  <path stroke="#131927" stroke-linecap="round" stroke-linejoin="round" stroke-width="1.5" d="M12 14a2 2 0 1 0 0-4 2 2 0 0 0 0 4Zm-9.949 7v-4.497c0-.278.226-.503.503-.503.2 0 .38.119.466.3a10.001 10.001 0 0 0 9.031 5.7c5.186 0 9.45-3.947 9.951-9"/>
</svg>
